X:86
T: Der heimkehrende Soldat
N: Q0103C
O: Osteuropa, Ungarn
N: Anhaengsel an der ersten und dritten Zeile.
R: Ballade, Ehe, Betrug
M: 3/4
L: 1/8
K: G
D2 | G4D2 | G4D2 | G4A2 | B4A2 | G4
B2 | B4d2 | d3cd2 | d2d2A2 | c4
B2 | B4A2 | A4e2 | e4d2 | d4c2 | B4

